X:139
T:Polska efter Mats Wessl\'en
R:sl\"angpolska
A:Uppland
Z:id:hn-sp-139
M:3/4
L:1/16
K:Gm
G3A B4 B4 | B2AG ^F2G2 A2D2 | G^FGA BABc d2B2 | A2G^F G2D2 B,2G,2 |
G3A B4 B4 | B2AG ^F2G2 A2D2 | G^FGA BABc d2B2 | A2G^F G8 :|
|: B6d2 B2d2 | B2d2 cdcB A2=F2 | B6d2 B2d2 | B2d2 cdcB A2^F2 |
G6A2 ^F2A2 | G2B2 A2c2 B4 | G^FGA BABc d2B2 | A2G^F G8 :|

